X:64
T: MAEDEL MIT DEM ROTHEN MIEDER
N: F0161
O: Europa, Mitteleuropa, Deutschland
R: Liebes - Lied
M: 2/4
L: 1/16
K: G
 | G2B2B2d2 | d2c2c2B2
A2A2A4 | GBdBG4
G2B2B2d2 | d2c2c2B2
A2A2A4 | GBdBG4
G2e2e2e2 | e2d2d4
d2c2c2c2 | c2B2B4
A2A2A4 | GBdBG2B2
A2A2A4 | GBdBG4
G2e2e2e2 | e2d2d4
d2c2c2c2 | c2B2B4
A2A2A4 | GBdBG2B2
A2A2A4 | GBdBG4

